src/components/common/AdvancedFilter/icons/archived.svg

<svg viewBox="0 0 512 512" xmlns="http://www.w3.org/2000/svg"><path fill="#fff" d="m256 0c-140.96875 0-256 115.050781-256 256 0 140.96875 115.050781 256 256 256 140.96875 0 256-115.050781 256-256 0-140.96875-115.050781-256-256-256zm0 482c-124.617188 0-226-101.382812-226-226s101.382812-226 226-226 226 101.382812 226 226-101.382812 226-226 226zm0 0"/><path fill="#fff" d="m234.027344 136h-113.027344v240h270v-195h-126.972656zm126.972656 210h-210v-180h66.972656l30 45h113.027344zm0 0"/></svg>

<svg viewBox="0 0 512 512" xmlns="http://www.w3.org/2000/svg"><g fill="#fff"><path d="M256 0C115.031 0 0 115.05 0 256c0 140.969 115.05 256 256 256 140.969 0 256-115.05 256-256C512 115.031 396.95 0 256 0zm0 482C131.383 482 30 380.617 30 256S131.383 30 256 30s226 101.383 226 226-101.383 226-226 226zm0 0"/><path d="M234.027 136H121v240h270V181H264.027zM361 346H151V166h66.973l30 45H361zm0 0"/></g></svg>
